!!!COM:	Martini, Johannes
!!!CDT:	~1440///-~1497//
!!!OTL:	Biaulx parle tousjours
!!!AGN:	Song; Chanson
!!!SCT:	Mar3001
!!!SCA:	Mar3001
!!!voices:	3
**kern	**kern	**kern
*staff3	*staff2	*staff1
*Ivox	*Ivox	*Ivox
*I"Bassus	*I"Tenor	*I"Altus
*I'B	*I'T	*I'A
*clefF4	*clefGv2	*clefG2
*k[b-]	*k[b-]	*k[b-]
*M2/1	*M2/1	*M2/1
*met(C|)	*met(C|)	*met(C|)
!!incipit: 5
=1-	=1-	=1-
0GG	0r	0r
=2	=2	=2
1FF	0r	0r
2GG/	.	.
[2BB-/	.	.
=3	=3	=3
2BB-/]	1.G	0r
2GG/	.	.
2BB-/	.	.
2C/	4F/	.
.	4E/	.
=4	=4	=4
1D	1F	0r
1BB-	2G/	.
.	[2B-\	.
=5	=5	=5
2GG/	2B-\]	1.g
1G	2G/	.
.	2B-\	.
4F\	2c\	4f/
4E\	.	4e/
=6	=6	=6
1D	1d	1f
2r	1B-	2g/
2GG/	.	[2b-\
=7	=7	=7
2BB-/	1G	2b-\]
2C/	.	2g/
2GG/	2r	2b-\
2r	2A/	2cc\
=8	=8	=8
2G\	2B-\	1dd
2.B-\	2.G/	.
.	.	1b-
4A\	4F/	.
4G\	4E/	.
4F\	4D/	.
=9	=9	=9
2G\	1E	1g
2C/	.	.
1F	1D	2r
.	.	2a/
=10	=10	=10
2r	1G	2b-\
2.E-\	.	2.g/
.	[1c	.
4D\	.	4f/
4C/	.	4e/
4BB-/	.	4d/
=11	=11	=11
1C	2c\]	1e
.	4B-\	.
.	4A/	.
2.GG/	2B-\	1d
.	2A/	.
4AA/	.	.
=12	=12	=12
2BB-/	1.G	1g
2.C/	.	.
.	.	[1cc
4BB-/	.	.
4AA/	4F/	.
4GG/	4E/	.
=13	=13	=13
1AA	1F	2cc\]
.	.	4b-\
.	.	4a/
2GG/	2G/	2b-\
2D\	2A/	2a/
=14	=14	=14
2G\	2B-\	1.g
2.C/	2.c\	.
4D\	4B-\	.
2E\	4A/	4f/
.	4G/	4e/
=15	=15	=15
1D	1A	1f
2r	2G/	1g
2GG/	2B-\	.
=16	=16	=16
2AA/	2c\	2e/
2.D\	1A	2.f/
4C/	.	4e/
2D\	2F/	4d/
.	.	4c/
=17	=17	=17
2.GG/	2G/	1B-
.	4F/	.
4AA/	4E/	.
4BB-/	1D	2d/
4C/	.	.
2D\	.	2f/
=18	=18	=18
2E\	2r	2g/
2.C/	1G	1e
4BB-/	.	.
2AA/	2A/	2c/
=19	=19	=19
1GG	2B-\	2d/
.	1G	4c/
.	.	4B-/
1D	.	1A
.	2F#i/	.
=20	=20	=20
2r	4G/	0r
.	4A/	.
1G	4B-\	.
.	4c\	.
.	2d\	.
2A\	2c\	.
=21	=21	=21
2B-\	2G/	0r
1G	2B-\	.
.	1A	.
2F#i\	.	.
=22	=22	=22
2.G\	2G/	2r
.	2.B-\	1g
4F\	.	.
2E\	.	.
.	4A/	.
2D\	2F/	2a/
=23	=23	=23
1G	2G/	2b-\
.	2E/	1g
1A	1D	.
.	.	2f#i/
=24	=24	=24
2G\	2r	2g/
2.G\	2d\	2.b-\
.	2G/	.
4F\	.	4a/
2D\	[2d\	2f/
=25	=25	=25
2G\	2d\]	2g/
2A\	2c\	2e/
1D	2d\	2d/
.	2B-\	[2f/
=26	=26	=26
2r	2.A/	2f/]
2AA/	.	1e
.	4G/	.
2C/	2A/	.
2D\	2F/	[2d/
=27	=27	=27
1AA	1E	2d/]
.	.	2c#i/
2r	[1D	1d
[2A\	.	.
=28	=28	=28
2A\]	1D]	2r
2F\	.	2A/
2G\	1r	2B-/
2E\	.	2c/
=29	=29	=29
1.D	2r	2d/
.	2A/	1f
.	2B-\	.
2C/	2c\	2e/
=30	=30	=30
1BB-	2d\	2d/
.	1f	4c/
.	.	4B-/
1r	.	1c
.	2e\	.
=31	=31	=31
1r	2d\	2r
.	4c\	1g
.	4B-\	.
2r	1c	.
2AA/	.	4f/
.	.	4e/
=32	=32	=32
2BB-/	2B-\	1d
2C/	4A/	.
.	4G/	.
2D\	2F/	1r
[2F\	2c\	.
=33	=33	=33
2F\]	2d\	0r
2E\	2.c\	.
2D\	.	.
.	4B-\	.
4C/	[2B-\	.
4BB-/	.	.
=34	=34	=34
1C	2B-\]	2r
.	2A/	2cc\
2BB-/	2B-\	2dd\
2F\	2A/	[2cc\
=35	=35	=35
2G\	1B-	4cc\]
.	.	4b-\
2D\	.	1b-
2E\	1c	.
2F\	.	2a/
=36	=36	=36
2BB-/	1B-	2.b-\
2G\	.	.
.	.	4a/
2A\	2r	2f/
2F\	[2d\	2a/
=37	=37	=37
2G\	2d\]	2b-\
2A\	2c\	2cc\
2D\	1d	2.a/
2F\	.	.
.	.	4g/
=38	=38	=38
2G\	2r	2e/
2E\	1c	2g/
2F\	.	2a/
2G\	2B-\	2b-\
=39	=39	=39
2C/	1c	2.g/
2E\	.	.
.	.	4f/
2F\	2r	2d/
2D\	[2B-\	2f/
=40	=40	=40
2E\	2B-\]	2g/
2F\	2A/	2a/
2BB-/	2B-\	2.f/
[2F\	[2c\	.
.	.	4e/
=41	=41	=41
4F\]	2c\]	2c/
4E\	.	.
2D\	2d\	2f/
2C/	2e\	2g/
2BB-/	[2d\	[2b-\
=42	=42	=42
1F	2d\]	4b-\]
.	.	4a/
.	2c\	1a
1G	1B-	.
.	.	2g/
=43	=43	=43
*M2/1	*	*
*met(3)	*	*
3%2D	0A	0a
3C/	.	.
3D\	.	.
3E\	.	.
3F\	.	.
=44	=44	=44
3%2G	0B-	0d
3F\	.	.
3E\	.	.
3%2D	.	.
=45	=45	=45
3%2C	0c	0e
3AA/	.	.
3BB-/	.	.
3%2C	.	.
=46	=46	=46
*M2/1	*	*
*met(C|)	*	*
2D\	1A	1f
2F\	.	.
2C/	2G/	2e/
4BB-/	[2B-\	[2d/
4AA/	.	.
=47	=47	=47
1GG	2B-\]	2d/]
.	4A/	4c/
.	4G/	4B-/
2r	2F/	2A/
2AA/	2E/	2c/
=48	=48	=48
2BB-/	1D	2d/
2.D\	.	1f
.	2r	.
4BB-/	.	.
2C/	2A/	4e/
.	.	4f/
=49	=49	=49
2GG/	2B-\	4g/
.	.	4f/
2BB-/	2.d\	4e/
.	.	4d/
1AA	.	1e
.	4B-\	.
.	2c\	.
=50	=50	=50
2r	2G/	1d
2GG/	2B-\	.
2FF/	2A/	1r
2GG/	[2G/	.
=51	=51	=51
1AA	2G/]	2r
.	2F#i/	2a/
2GG/	2G/	2b-\
[2G\	[2B-\	[2dd\
=52	=52	=52
2G\]	2B-\]	4dd\]
.	.	4b-\
2F\	2A/	2cc\
2G\	2B-\	2g/
2D\	[2d\	2b-\
=53	=53	=53
2F\	4d\]	2a/
.	4c\	.
2G\	2B-\	1g
1D	1A	.
.	.	2f#i/
=54	=54	=54
3E-i\V	[0Gl	[0gl
3D\	.	.
3C/Z	.	.
3BB-/V	.	.
3%2CZ	.	.
=55	=55	=55
0GGl	0G]	0g]
==	==	==
*-	*-	*-
!!!RDF**kern: l=long note in original notation
!!!RDF**kern: i=editorial accidental
!!!RDF**kern: V=start of tuplet marker
!!!RDF**kern: Z=end of tuplet marker
!!!ENC:	Chris Gage 10-30-2014
!!!END:	2015/02/26/
!!!EED:	Jesse Rodin
!!!EEV:	2015/03/05/
!!!ONB:	Translated from MusicXML and edited on 2015/03/05/ by Craig Sapp
!!muse2ps: C^@{COM}^i2I150v85,85,150Q16
